hosted/assets/icon/widgets/dark-mode/list.svg

<svg width="50" height="50" viewBox="0 0 50 50" fill="none" xmlns="http://www.w3.org/2000/svg">
<rect x="3" y="8" width="4" height="4" fill="#4A6BB7"/>
<rect x="3" y="18" width="4" height="4" fill="#4A6BB7"/>
<rect x="3" y="28" width="4" height="4" fill="#4A6BB7"/>
<rect x="3" y="38" width="4" height="4" fill="#4A6BB7"/>
<path d="M2.81263 7C2.33607 7.08984 1.99232 7.51172 2.00013 8V12C2.00013 12.5508 2.44935 13 3.00013 13H7.00013C7.55091 13 8.00013 12.5508 8.00013 12V8C8.00013 7.44922 7.55091 7 7.00013 7H3.00013C2.96888 7 2.93763 7 2.90638 7C2.87513 7 2.84388 7 2.81263 7ZM4.00013 9H6.00013V11H4.00013V9ZM10.7189 9C10.1681 9.07812 9.78138 9.58984 9.85951 10.1406C9.93763 10.6914 10.4493 11.0781 11.0001 11H47.0001C47.3595 11.0039 47.6954 10.8164 47.879 10.5039C48.0587 10.1914 48.0587 9.80859 47.879 9.49609C47.6954 9.18359 47.3595 8.99609 47.0001 9H11.0001C10.9689 9 10.9376 9 10.9064 9C10.8751 9 10.8439 9 10.8126 9C10.7814 9 10.7501 9 10.7189 9ZM2.81263 17C2.33607 17.0898 1.99232 17.5117 2.00013 18V22C2.00013 22.5508 2.44935 23 3.00013 23H7.00013C7.55091 23 8.00013 22.5508 8.00013 22V18C8.00013 17.4492 7.55091 17 7.00013 17H3.00013C2.96888 17 2.93763 17 2.90638 17C2.87513 17 2.84388 17 2.81263 17ZM4.00013 19H6.00013V21H4.00013V19ZM10.7189 19C10.1681 19.0781 9.78138 19.5898 9.85951 20.1406C9.93763 20.6914 10.4493 21.0781 11.0001 21H47.0001C47.3595 21.0039 47.6954 20.8164 47.879 20.5039C48.0587 20.1914 48.0587 19.8086 47.879 19.4961C47.6954 19.1836 47.3595 18.9961 47.0001 19H11.0001C10.9689 19 10.9376 19 10.9064 19C10.8751 19 10.8439 19 10.8126 19C10.7814 19 10.7501 19 10.7189 19ZM2.81263 27C2.33607 27.0898 1.99232 27.5117 2.00013 28V32C2.00013 32.5508 2.44935 33 3.00013 33H7.00013C7.55091 33 8.00013 32.5508 8.00013 32V28C8.00013 27.4492 7.55091 27 7.00013 27H3.00013C2.96888 27 2.93763 27 2.90638 27C2.87513 27 2.84388 27 2.81263 27ZM4.00013 29H6.00013V31H4.00013V29ZM10.7189 29C10.1681 29.0781 9.78138 29.5898 9.85951 30.1406C9.93763 30.6914 10.4493 31.0781 11.0001 31H47.0001C47.3595 31.0039 47.6954 30.8164 47.879 30.5039C48.0587 30.1914 48.0587 29.8086 47.879 29.4961C47.6954 29.1836 47.3595 28.9961 47.0001 29H11.0001C10.9689 29 10.9376 29 10.9064 29C10.8751 29 10.8439 29 10.8126 29C10.7814 29 10.7501 29 10.7189 29ZM2.81263 37C2.33607 37.0898 1.99232 37.5117 2.00013 38V42C2.00013 42.5508 2.44935 43 3.00013 43H7.00013C7.55091 43 8.00013 42.5508 8.00013 42V38C8.00013 37.4492 7.55091 37 7.00013 37H3.00013C2.96888 37 2.93763 37 2.90638 37C2.87513 37 2.84388 37 2.81263 37ZM4.00013 39H6.00013V41H4.00013V39ZM10.7189 39C10.1681 39.0781 9.78138 39.5898 9.85951 40.1406C9.93763 40.6914 10.4493 41.0781 11.0001 41H47.0001C47.3595 41.0039 47.6954 40.8164 47.879 40.5039C48.0587 40.1914 48.0587 39.8086 47.879 39.4961C47.6954 39.1836 47.3595 38.9961 47.0001 39H11.0001C10.9689 39 10.9376 39 10.9064 39C10.8751 39 10.8439 39 10.8126 39C10.7814 39 10.7501 39 10.7189 39Z" fill="white"/>
</svg>

<svg width="50" height="50" fill="none" xmlns="http://www.w3.org/2000/svg"><path fill="#4A6BB7" d="M3 8h4v4H3zm0 10h4v4H3zm0 10h4v4H3zm0 10h4v4H3z"/><path d="M2.813 7A1 1 0 002 8v4c0 .55.45 1 1 1h4c.55 0 1-.45 1-1V8c0-.55-.45-1-1-1H2.813zM4 9h2v2H4V9zm6.719 0c-.55.078-.938.59-.86 1.14.079.551.59.938 1.141.86h36c.36.004.695-.184.879-.496a1.01 1.01 0 000-1.008c-.184-.312-.52-.5-.879-.496H10.72zm-7.906 8A1 1 0 002 18v4c0 .55.45 1 1 1h4c.55 0 1-.45 1-1v-4c0-.55-.45-1-1-1H2.813zM4 19h2v2H4v-2zm6.719 0c-.55.078-.938.59-.86 1.14.079.551.59.938 1.141.86h36c.36.004.695-.184.879-.496a1.01 1.01 0 000-1.008c-.184-.312-.52-.5-.879-.496H10.72zm-7.906 8A1 1 0 002 28v4c0 .55.45 1 1 1h4c.55 0 1-.45 1-1v-4c0-.55-.45-1-1-1H2.813zM4 29h2v2H4v-2zm6.719 0c-.55.078-.938.59-.86 1.14.079.551.59.938 1.141.86h36c.36.004.695-.184.879-.496a1.01 1.01 0 000-1.008c-.184-.312-.52-.5-.879-.496H10.72zm-7.906 8A1 1 0 002 38v4c0 .55.45 1 1 1h4c.55 0 1-.45 1-1v-4c0-.55-.45-1-1-1H2.813zM4 39h2v2H4v-2zm6.719 0c-.55.078-.938.59-.86 1.14.079.551.59.938 1.141.86h36c.36.004.695-.184.879-.496a1.01 1.01 0 000-1.008c-.184-.312-.52-.5-.879-.496H10.72z" fill="#fff"/></svg>
